X: 689
T: Ag Críost An Síol
R: polka
M: 2/4
K: Gmajor
FG|A>(d d)e/d/|c2 B(3B/A/G/|A>A B(3B/A/G/|(A2 A)B/A/|
GA/G/ F>G|(A2 A2|A2 A)F/G/|A>(d d)e/d/|
c2 B(3B/A/G/|A>A B(3B/A/G/|(A2 A)B/A/|GA/G/ F>G|
(A2 A2|A)F/G/ Ad/e/|(f2 f)e/f/|g(3a/g/f/ f(3f/e/d/|
e2 ee/d/|cd/c/ B(3B/A/G/|A2 A>B|cd/c/ B(3B/A/G/|
A2 FG|A>(d d)e/d/|c2 B(3B/A/G/|A>A AD/E/|
FG/E/ A2|E2 F>E|D>E D2|D2 D2||

